frontend/src/assets/figma/downloaded/hero-logo.svg

<svg preserveAspectRatio="none" width="100%" height="100%" overflow="visible" style="display: block;" viewBox="0 0 332.89 86.163" fill="none" xmlns="http://www.w3.org/2000/svg">
<g id="&#208;&#187;&#208;&#190;&#208;&#179;&#208;&#190; 2 " clip-path="url(#clip0_122_1225)">
<path id="Vector" d="M88.8243 64.4155C85.3261 51.853 77.8807 40.9627 67.9084 33.1976C70.5338 29.9408 72.816 26.3985 74.7185 22.6331C76.8582 18.3955 78.045 14.7618 78.6292 12.8041C79.5896 9.57286 80.5755 5.22189 80.9297 0C57.3957 0.0219561 33.8616 0.0475715 10.3203 0.0695276C10.3203 28.5905 10.3313 57.1114 10.3313 85.6287H90.8107C90.9458 83.9784 91.0188 82.3024 91.0188 80.6118C91.0188 74.9983 90.252 69.5679 88.8206 64.4155H88.8279H88.8243ZM31.3969 64.4155V22.6331H48.6101C48.4641 22.7831 48.3143 22.9295 48.161 23.0722C46.0796 25.1104 43.7609 26.9108 41.2633 28.4185V52.1091C44.6701 50.9162 47.9382 49.4122 51.0274 47.6411C57.5673 51.5675 62.8401 57.4152 66.0753 64.4155H31.3969Z" fill="var(--fill-0, white)"/>
<path id="Vector_2" d="M334.937 74.6763C334.896 76.356 334.805 78.1381 334.641 80.008C334.458 82.0499 334.21 83.9747 333.922 85.7678H312.644C312.863 84.7212 313.06 83.6161 313.225 82.4488C313.32 81.7718 313.4 81.1094 313.462 80.4691C313.462 80.4691 313.809 77.3842 313.809 74.6763C313.809 51.9371 301.23 31.2325 282.209 22.7428V85.7678H261.18V0H280.912C308.843 5.99767 324.57 32.6341 329.704 46.0273C330.299 47.5825 332.059 53.7778 333.509 61.4075C334.064 64.3277 334.736 67.848 334.896 72.3709C334.929 73.337 334.937 74.1347 334.933 74.68L334.937 74.6763Z" fill="var(--fill-0, white)"/>
<path id="Vector_3" d="M166.607 0.00731869C164.755 2.01996 163.437 3.91184 162.528 5.37924C161.867 6.44777 160.877 8.0652 159.986 10.3596C159.066 12.7309 158.73 14.5825 158.409 16.35C157.58 20.9388 157.741 24.4664 157.832 25.824C157.887 26.662 157.964 27.3463 158.022 27.8074H142.605C142.872 25.4471 143.164 23.2734 143.474 20.8546H124.271V85.636H103.07V8.55189H103.078V0H150.558L166.607 0.00731869Z" fill="var(--fill-0, white)"/>
<path id="Vector_4" d="M199.308 0C200.696 14.9448 210.602 27.4158 224.109 32.4804V0.0658683H245.211V62.348L245.361 62.2748V82.145L244.017 82.6171C243.006 82.9721 241.976 83.3087 240.921 83.6198C239.661 84.0003 238.401 84.326 237.145 84.6151C234.231 85.2848 231.31 85.7275 228.407 85.9617C226.965 86.0788 225.526 86.1484 224.087 86.1593C223.708 86.163 223.328 86.163 222.952 86.1593C222.718 86.1593 222.433 86.1593 222.141 86.1447C216.832 86.0313 211.617 85.2152 206.611 83.7734C206.334 83.6966 206.056 83.6161 205.764 83.521C204.961 83.2868 204.179 83.0269 203.431 82.7671H203.423L203.416 82.7598C202.956 82.5951 202.496 82.4305 202.029 82.2585C199.557 81.34 197.19 80.2092 195.456 79.32C194.587 78.8736 193.867 78.482 193.364 78.2003C193.112 78.0612 192.914 77.9478 192.776 77.8673C192.706 77.827 192.655 77.7977 192.619 77.7758C192.6 77.7648 192.586 77.7575 192.575 77.7502C192.571 77.7502 192.568 77.7465 192.564 77.7428L192.093 77.4647C187.244 74.5702 183.541 71.4122 181.262 69.2824L179.462 67.6028L181.467 66.172C183.384 64.8034 185.359 63.3287 187.368 61.7369L188.043 61.1989C189.606 59.9474 191.092 58.7033 192.502 57.4737L193.802 56.343L195.116 57.4554C198.22 60.0865 201.945 62.5785 206.374 64.496L206.805 64.679C207.272 64.8766 207.747 65.0632 208.236 65.2498H208.254L208.364 65.2937C208.875 65.4877 209.401 65.6707 209.949 65.85C210.08 65.8939 210.19 65.9268 210.296 65.9634L210.613 66.0622L210.646 66.0695L210.675 66.0805L210.997 66.183C211.212 66.2488 211.431 66.3147 211.65 66.3733L211.983 66.4647H211.994L212.005 66.4721C212.841 66.7063 213.681 66.9148 214.524 67.0905L214.886 67.1637H214.889H214.893C217.307 67.654 219.771 67.9468 222.265 68.0163C222.879 68.0309 223.496 68.0346 224.117 68.0273V54.7219C198.753 48.8779 179.568 26.8194 177.969 0H199.305H199.308Z" fill="var(--fill-0, white)"/>
</g>
<defs>
<clipPath id="clip0_122_1225">
<rect width="332.89" height="86.163" fill="white"/>
</clipPath>
</defs>
</svg>

<svg xmlns="http://www.w3.org/2000/svg" fill="none" overflow="visible" preserveAspectRatio="none" style="display:block" viewBox="0 0 332.89 86.163"><g fill="var(--fill-0, white)" clip-path="url(#a)"><path d="M88.824 64.415a60 60 0 0 0-20.916-31.217A59.8 59.8 0 0 0 78.63 12.804 59 59 0 0 0 80.93 0C57.397.022 33.863.048 10.32.07c0 28.52.011 57.041.011 85.559h80.48c.135-1.65.208-3.327.208-5.017a60.4 60.4 0 0 0-2.198-16.196h.007zm-57.427 0V22.633H48.61q-.22.225-.449.44a37.8 37.8 0 0 1-6.898 5.346v23.69a58.5 58.5 0 0 0 9.764-4.468 38.36 38.36 0 0 1 15.048 16.774zm303.54 10.261a85 85 0 0 1-.296 5.332 83 83 0 0 1-.719 5.76h-21.278a51 51 0 0 0 .581-3.32c.095-.676.175-1.339.237-1.979 0 0 .347-3.085.347-5.793 0-22.739-12.579-43.443-31.6-51.933v63.025H261.18V0h19.732c27.931 5.998 43.658 32.634 48.792 46.027.595 1.556 2.355 7.75 3.805 15.38.555 2.92 1.227 6.441 1.387 10.964.033.966.041 1.764.037 2.309zM166.607.007a35.6 35.6 0 0 0-4.079 5.372c-.661 1.069-1.651 2.686-2.542 4.98-.92 2.372-1.256 4.224-1.577 5.991-.829 4.589-.668 8.116-.577 9.474.055.838.132 1.522.19 1.983h-15.417c.267-2.36.559-4.534.869-6.952h-19.203v64.781H103.07V8.552h.008V0h47.48zM199.308 0c1.388 14.945 11.294 27.416 24.801 32.48V.066h21.102v62.282l.15-.073v19.87l-1.344.472a64 64 0 0 1-3.096 1.003 61 61 0 0 1-12.514 2.342 59 59 0 0 1-5.455.197c-.234 0-.519 0-.811-.014a60.8 60.8 0 0 1-15.53-2.372 20 20 0 0 1-.847-.252 49 49 0 0 1-2.333-.754h-.008l-.007-.007q-.688-.246-1.387-.502c-2.472-.918-4.839-2.049-6.573-2.938a67 67 0 0 1-2.68-1.453l-.157-.091-.044-.026q-.005-.001-.011-.007l-.471-.278c-4.849-2.895-8.552-6.053-10.831-8.183l-1.8-1.68 2.005-1.43a148 148 0 0 0 5.901-4.435l.675-.538a138 138 0 0 0 4.459-3.725l1.3-1.131 1.314 1.112c3.104 2.632 6.829 5.124 11.258 7.041l.431.183c.467.198.942.384 1.431.57h.018l.11.045q.765.29 1.585.556c.131.044.241.077.347.113l.317.1.033.007.029.01.322.103c.215.066.434.132.653.19l.333.092h.011l.011.007c.836.234 1.676.443 2.519.619l.362.073h.007c2.414.49 4.878.783 7.372.852q.92.023 1.852.011V54.722C198.753 48.878 179.568 26.819 177.969 0z"/></g><defs><clipPath id="a"><path fill="#fff" d="M0 0h332.89v86.163H0z"/></clipPath></defs></svg>
